!!!!SEGMENT: pl-wnifc--6436-n_wanski-jan--mazurek-grany-na-balu-u-xiecia-namiestnika.krn
!!!cenid: 18xx:3942
!!!COM: Wański, Jan
!!!COM-rismID: pe30003295
!!!CDT: ~1800-1888/04
!!!CNT: Polish
!!!OTL: Mazurek grany na Balu u Xięcia Namiestnika
!!!PDT: 1820
!!!AGN:
!!!SMS-siglum: PL-Wnifc
!!!SMS-shelfmark: 6436/n
!!!SMS-shelfwork: W
!!!SMS-variant:
!!!SMS-altvar:
!!!NIFC-rismSourceID: 1001010093
!!!NIFC-rismChildID: 1001010093
!!!NIFC-islandoraID: nifc:212724
!!!URL-pdf-islandora: https://repozytorium.nifc.pl/islandora/object/nifc:212724/datastream/PDF/view
!!!URL-scan: https://polish.musicsources.pl/pl/lokalizacje/galeria/druki-muzyczne/16855 @EN{Scan on Polish Music Sources Website} @PL{Skany w portalu Dziedzictwo Muzyki Polskiej w otwartym dostępie}
!!!ONB-nifc:
!!!AIN: 2 piano
!!!key: D
**kern	**kern	**dynam
*part2	*part1	*part1
*staff2	*staff1	*
*I"Piano	*I"Piano	*
*Ipiano	*Ipiano	*
*ICklav	*ICklav	*
*clefF4	*clefG2	*
*k[f#c#]	*k[f#c#]	*
*D:	*D:	*
*M3/8	*M3/8	*
=1	=1	=1
*	*ped	*
8DD/L 8D	16dd\LL	f
.	16ff#\	.
8D/ 8F# 8A	16aa\	.
.	16gg#X\	.
8D/J 8F# 8A	16bb\	.
.	16aa\JJ	.
=2	=2	=2
8D\L 8F# 8A	16gg#X\LL	.
.	16aa\	.
8D\ 8F# 8A	16ee\	.
.	16ff#\J	.
8D\J 8F# 8A	8dd\J	.
*	*Xped	*
=3	=3	=3
8AA\L 8E 8A	16cc#\LL	.
.	16ee\	.
8AA\ 8E 8A	16aa\	.
.	16gg\	.
8AA\J 8E 8A	16ee\	.
.	16cc#\JJ	.
=4	=4	=4
8D\L 8F# 8A	16dd\LL	.
.	16ff#\	.
8D\ 8F# 8A	16bb\	.
.	16aa\J	.
8D\J 8F# 8A	8aa\J	.
!!LO:LB:g=original
=5	=5	=5
*	*ped	*
8DD/L 8D	16dd\LL	.
.	16ff#\	.
8D/ 8F# 8A	16aa\	.
.	16gg#X\	.
8D/J 8F# 8A	16bb\	.
.	16aa\JJ	.
=6	=6	=6
8D\L 8F# 8A	16gg#X\LL	.
.	16aa\	.
8D\ 8F# 8A	16ee\	.
.	16ff#\J	.
8D\J 8F# 8A	8dd\J	.
*	*Xped	*
=7	=7	=7
8AA\L 8E 8A	16cc#\LL	.
.	16ee\	.
8AA\ 8E 8A	16aa\	.
.	16gg\	.
8AA\J 8E 8A	16ee\	.
.	16cc#\JJ	.
=8	=8	=8
8D\ 8F# 8A	16ee\LL	.
.	16dd\JJ	.
4D\ 4F# 4A	4dd\	.
=9:|!|:	=9:|!|:	=9:|!|:
8E\L 8G 8A	16cc#\LL	.
.	16ee\	.
8E\ 8G 8A	16dd\	.
.	16cc#\	.
8E\J 8G 8A	16b\	.
.	16a\JJ	.
!!LO:LB:g=original
=10	=10	=10
8D\L 8F# 8A	16a\LL	.
.	16dd\JJ	.
8D\ 8F# 8A	4dd\	.
8D\J 8F# 8A	.	.
=11	=11	=11
8C#\L 8E 8A	16ee\LL	.
.	16ff#\	.
8C#\ 8E 8A	16gg\	.
.	16ff#\	.
8C#\J 8E 8A	16gg\	.
.	16ee\JJ	.
=12	=12	=12
8D\L 8F# 8A	16ff#\LL	.
.	16ee\	.
8D\ 8F# 8A	16bb\	.
.	16aa\J	.
8D\J 8F# 8A	8aa\J	.
=13	=13	=13
*	*ped	*
8DD/L 8D	16dd\LL	.
.	16ff#\	.
8D/ 8F# 8A	16aa\	.
.	16gg#X\	.
8D/J 8F# 8A	16bb\	.
.	16aa\JJ	.
=14	=14	=14
8D\L 8F# 8A	16gg#X\LL	.
.	16aa\	.
8D\ 8F# 8A	16ee\	.
.	16ff#\J	.
8D\J 8F# 8A	8dd\J	.
*	*Xped	*
!!LO:LB:g=original
=15	=15	=15
8AA\L 8E 8A	16cc#\LL	.
.	16ee\	.
8AA\ 8E 8A	16aa\	.
.	16gg\	.
8AA\J 8E 8A	16ee\	.
.	16cc#\JJ	.
=16	=16	=16
8D\ 8F# 8A	16ee\LL	.
.	16dd\JJ	.
4D\ 4F# 4A	4dd\	.
=17:|!|:	=17:|!|:;	=17:|!|:
*clefG2	*	*
*k[f#]	*k[f#]	*
!	!LO:TX:t=P:problem:fermata nad kreską taktową, kasownik zamiast fisa przykluczowego	!
.	8qqaa/	.
16g\LL	16gg\LL	.
16dd\	16ff#\	.
16b\	16gg\	.
16dd\	16aa\	.
16b\	16bb\	.
16dd\JJ	16ccc\JJ	.
=18	=18	=18
16g/LL	16eee\LL	.
16dd/	16ddd\	.
16b/	16ccc#X\	.
16dd/	16ddd\	.
16a/	16bb\	.
16dd/JJ	16gg\JJ	.
=19	=19	=19
16d/LL	16ff#\LL	.
16dd/	16aa\	.
16a/	16ddd\	.
16dd/	16ccc\	.
16cc/	16aa\	.
16dd/JJ	16ff#\JJ	.
!!LO:PB:g=original
=20	=20	=20
16g\LL 16b	16gg\LL	.
16dd\	16bb\	.
16g\ 16b	16eee\	.
16dd\	16ddd\J	.
16g\ 16b	8ddd\J	.
16dd\JJ	.	.
=21	=21	=21
.	16qqaa/	.
16g\LL	16gg\LL	.
16dd\	16ff#\	.
16b\	16gg\	.
16dd\	16aa\	.
16b\	16bb\	.
16dd\JJ	16ccc\JJ	.
=22	=22	=22
16g\LL	16eee\LL	.
16dd\	16ddd\	.
16b\	16ccc#X\	.
16dd\	16ddd\	.
16b\	16bb\	.
16dd\JJ	16gg\JJ	.
=23	=23	=23
16d/LL	16ff#\LL	.
16dd/	16aa\	.
16a/	16ddd\	.
16dd/	16ccc\	.
16cc/	16aa\	.
16dd/JJ	16ff#\JJ	.
=24	=24	=24
8g/ 8b	16aa\LL	.
.	16gg\JJ	.
4g/ 4b	4gg\	.
!!LO:LB:g=original
*clefF4	*	*
=25:|!|:	=25:|!|:	=25:|!|:
16A\LL 16c	16ff#\LL	f
16d\	16aa\	.
16A\ 16c	16gg\	.
16d\	16ff#\	.
16A\ 16c	16ee\	.
16d\JJ	16dd\JJ	.
=26	=26	=26
16G\LL 16B	16dd\LL	.
16d\	16gg\JJ	.
16G\ 16B	4gg\	.
16d\	.	.
16G\ 16B	.	.
16d\JJ	.	.
=27	=27	=27
16F#\LL 16A	16aa\LL	.
16d\	16bb\	.
16F#\ 16A	16ccc\	.
16d\	16bb\	.
16F#\	16ccc\	.
16d\JJ	16aa\JJ	.
=28	=28	=28
16G\LL 16B	16ccc\LL	.
16d\	16bb\	.
16G\ 16B	16eee\	.
16d\	16ddd\J	.
16G\ 16B	8ddd\J	.
16d\JJ	.	.
=29	=29	=29
*clefG2	*	*
16g/LL	16gg\LL	.
16dd/	16bb\	.
16b/	16ddd\	.
16dd/	16bb\	.
16b/	16ddd\	.
16dd/JJ	16bb\JJ	.
!!LO:LB:g=original
=30	=30	=30
*clefF4	*	*
16BB\LL	16eee\LL	.
16F#\	16ddd\	.
16D\	16ccc#X\	.
16F#\	16ddd\	.
16D\	16bb\	.
16F#\JJ	16gg\JJ	.
=31	=31	=31
16FF#/LL	16ff#\LL	.
16F#/	16aa\	.
16C/	16ddd\	.
16F#/	16ccc\	.
16E/	16aa\	.
16F#/JJ	16ff#\JJ	.
=32	=32	=32
8BB/ 8D	16aa\LL	.
.	16gg\JJ	.
!LO:TX:a:i:t=da Capo.	!	!
4BB/ 4D	4gg\	.
=:|!	=:|!	=:|!
*-	*-	*-
!!!system-decoration: [(s1,s2)]
!!!ENC: Filip Voros
!!!END: 2022-07-28
!!!ENC: Urszula Świątek
!!!END: 2022-08-24
!!!YEC: Copyright 2022 Narodowy Instytut Fryderyka Chopina (https://polishscores.org)
!!!YEM: License CC-BY-4.0 (https://creativecommons.org/licenses/by/4.0)
